!!!COM: Palestrina, Giovanni Perluigi da
!!!OPR: Missa Pater noster
!!!OMD: Credo
!!!OTL: Et iterum
**kern	**kern	**kern	**kern
*Ibass	*Itenor	*Icalto	*Icant
!Bassus	!Tenor	!Altus	!Cantus
*clefF4	*clefGv2	*clefG2	*clefG2
*k[]	*k[]	*k[]	*k[]
*D:dor	*D:dor	*D:dor	*D:dor
*M4/2	*M4/2	*M4/2	*M4/2
=124	=124	=124	=124
1G	1r	0r	0r
[1B-	1d	.	.
=125	=125	=125	=125
2B-]	1.f	0r	0r
2A	.	.	.
[1A	.	.	.
.	2e	.	.
=126	=126	=126	=126
2A]	1e	0r	0r
2G	.	.	.
2F#	1d	.	.
[2G	.	.	.
=127	=127	=127	=127
4G]	1e	0r	0r
4C	.	.	.
2.c	.	.	.
.	1d	.	.
8B	.	.	.
8A	.	.	.
2B	.	.	.
=128	=128	=128	=128
1c	4c	1g	1r
.	4d	.	.
.	4e	.	.
.	4f	.	.
2r	1g	[1b-	1dd
2G	.	.	.
=129	=129	=129	=129
1.d	0r	2b-]	1.ff
.	.	2a	.
.	.	[1a	.
2A	.	.	2ee
=130	=130	=130	=130
1c	0r	2a]	1ee
.	.	2g	.
2d	.	2f	1dd
2B	.	[2g	.
=131	=131	=131	=131
1c	0r	4g]	1ee
.	.	4c	.
.	.	2.cc	.
1G	.	.	1dd
.	.	8b	.
.	.	8a	.
.	.	2b	.
=132	=132	=132	=132
1A	1e	2cc	1cc
.	.	1a	.
1B-	1d	.	2r
.	.	2g	[2dd
=133	=133	=133	=133
1A	1e	1a	2dd]
.	.	.	2cc
[1G	[1g	1b-	2dd
.	.	.	[2ee
=134	=134	=134	=134
1G]	2g]	1b-	4ee]
.	.	.	4dd
.	2f	.	1dd
2.A	1e	1a	.
.	.	.	2cc#
4A	.	.	.
=135	=135	=135	=135
1D	2r	2r	1dd
.	2d	2f	.
1r	2e	2g	[1cc
.	[2f	[2a	.
=136	=136	=136	=136
0r	4f]	4a]	1cc]
.	8e	8g	.
.	8d	8f	.
.	2e	2g	.
.	2f	2a	1dd
.	2g	2b	.
=137	=137	=137	=137
0r	2.c	2.cc	1ee
.	4d	4b	.
.	4e	4g	2ee
.	4f	4a	.
.	2g	2b	2dd
=138	=138	=138	=138
0r	2d	2a	2ff
.	4e	2.cc	2ee
.	4f	.	.
.	1g	.	1dd
.	.	8b	.
.	.	8a	.
.	.	2b	.
=139	=139	=139	=139
2r	1c	4cc	0cc
.	.	4b	.
1F	.	4a	.
.	.	4g	.
.	2r	2.a	.
2F	2c	.	.
.	.	8g	.
.	.	8f	.
=140	=140	=140	=140
2.A	2c	1e	0r
.	2.e	.	.
4A	.	.	.
2G	.	1r	.
.	4e	.	.
[2B-	2d	.	.
=141	=141	=141	=141
2B-]	1f	0r	0r
2A	.	.	.
2.G	2e	.	.
.	[2d	.	.
8F	.	.	.
8E	.	.	.
=142	=142	=142	=142
4D	4d]	0r	0r
4E	8c	.	.
.	8B	.	.
4F	4A	.	.
4G	4B	.	.
2.A	4c	.	.
.	4d	.	.
.	[2e	.	.
4G	.	.	.
=143	=143	=143	=143
2F	2e]	1r	2r
2F	2d	.	1a
2C	1e	2r	.
[2c	.	[2e	2g
=144	=144	=144	=144
2c]	0r	2e]	2a
2B	.	2d	2b
2A	.	2e	1cc
2A	.	2f#	.
=145	=145	=145	=145
1G	2r	1g	1b
.	1d	.	.
2.A	.	1e	2r
.	2c	.	[2a
4G	.	.	.
=146	=146	=146	=146
2F	2d	0r	2a]
2E	2e	.	2g
1D	2f	.	2a
.	2f	.	2b
=147	=147	=147	=147
1A	2e	2r	1cc
.	1f	1a	.
1r	.	.	2dd
.	2e	2g	2ee
=148	=148	=148	=148
1r	1d	2a	2ff
.	.	2b	2dd
2r	2.c	2cc	2.ee
[2A	.	2cc	.
.	4d	.	4dd
=149	=149	=149	=149
2A]	2e	1a	4cc
.	.	.	4a
2F	1f	.	1dd
2G	.	2b-	.
2A	[2e	2a	2cc#
=150	=150	=150	=150
1B-	4e]	4g	1dd
.	4d	4f	.
.	1d	4f	.
.	.	8e	.
.	.	8d	.
2A	.	1e	2r
2A	2c#	.	[2a
=151	=151	=151	=151
2D	1d	2f	2a]
1B-	.	1d	2f
.	1r	.	2g
2A	.	2c	2a
=152	=152	=152	=152
2G	1r	2d	1b-
2G	.	2e	.
2.F	2r	1f	[1a
.	[2d	.	.
4G	.	.	.
=153	=153	=153	=153
1A	2d]	2.e	2a]
.	2c	.	2a
.	.	8d	.
.	.	8e	.
2D	2d	2f	[1a
2C#	2e	2e	.
=154	=154	=154	=154
1D	1f	2d	1a]
.	.	1a	.
1E	2e	.	2r
.	2e	2g	[2ee
=155	=155	=155	=155
0r	2A	4cc	2ee]
.	.	4b	.
.	1f	4a	2cc
.	.	4g	.
.	.	2f	2dd
.	2e	2g	2ee
=156	=156	=156	=156
1r	2d	1a	1ff
.	2d	.	.
1A	2c	2a	2ee
.	2A	2a	2cc
=157	=157	=157	=157
2A	2r	2a	2cc
2F	2d	2a	2a
2G	2d	2g	2b-
2A	2c	2f	[2a
=158	=158	=158	=158
1B-	2d	2f	2a]
.	2d	4e	2g
.	.	4d	.
2A	1e	2c	2a
[2c	.	2A	[2ee
=159	=159	=159	=159
2c]	1e	1A	2ee]
2A	.	.	2cc
2B	1r	2r	2dd
2c	.	[2a	2ee
=160	=160	=160	=160
1d	0r	2a]	2ff
.	.	2f	1ff
2c	.	2g	.
2c	.	2a	2ee
=161	=161	=161	=161
1G	2r	1b-	2.dd
.	1d	.	.
.	.	.	4ee
1A	.	[1a	2ff
.	2c	.	2ee
=162	=162	=162	=162
2d	2d	1a]	2ff
2c#	2e	.	1ee
2.d	2f	1a	.
.	[2f	.	[2dd
4c	.	.	.
=163	=163	=163	=163
2B	2f]	0g	2dd]
2c	2e	.	2.cc
1G	1d	.	.
.	.	.	8b
.	.	.	8a
.	.	.	2b
=164	=164	=164	=164
2r	1c	1e	1cc
2A	.	.	.
2F	1d	1r	1r
2G	.	.	.
=165	=165	=165	=165
2A	2c	0r	0r
4G	2d	.	.
4F	.	.	.
4E	1e	.	.
4F	.	.	.
4G	.	.	.
4E	.	.	.
=166	=166	=166	=166
2F	2d	0r	0r
1G	1e	.	.
2F	[2d	.	.
=167	=167	=167	=167
2E	2d]	1g	1r
2E	2c#	.	.
1D	2d	2.f	2r
.	2d	.	2dd
.	.	4g	.
=168	=168	=168	=168
0r	2A	2a	2cc
.	2B	2g	2dd
.	2.c	4e	2.ee
.	.	4f	.
.	.	4g	.
.	4c	4e	4ee
=169	=169	=169	=169
0r	2d	2f	2dd
.	2c	2g	1ee
.	2c	2g	.
.	2d	2f	[2dd
=170	=170	=170	=170
2r	1A	1e	2dd]
2A	.	.	2cc#
2.B-	2r	4d	1dd
.	.	4e	.
.	2d	4f	.
4B-	.	4g	.
=171	=171	=171	=171
2A	2.f	1a	0r
2F	.	.	.
.	4f	.	.
2G	2e	1r	.
2A	2c	.	.
=172	=172	=172	=172
2B-	2d	1r	0r
4A	2e	.	.
4G	.	.	.
4F	4f	1a	.
4G	4d	.	.
4A	[2f	.	.
4F	.	.	.
=173	=173	=173	=173
1G	2f]	2.b-	1r
.	2e	.	.
.	.	4b-	.
[1D	2.f	[1a	2r
.	.	.	2dd
.	4e	.	.
=174	=174	=174	=174
1D]	1d	2a]	2.ff
.	.	2f	.
.	.	.	4ff
1r	1c	2g	2ee
.	.	2a	2cc
=175	=175	=175	=175
0r	2r	2b-	2dd
.	2c	4a	2ee
.	.	4g	.
.	2d	2f	2ff
.	2e	2g	4ee
.	.	.	4dd
=176	=176	=176	=176
1r	2f	4a	4cc
.	.	4b	4dd
.	2c	1cc	4ee
.	.	.	4cc
2r	1G	.	1dd
[2G	.	4b	.
.	.	4a	.
=177	=177	=177	=177
2G]	2r	2b	1dd
2D	1d	2a	.
2.F	.	1a	1r
.	2A	.	.
4G	.	.	.
=178	=178	=178	=178
2A	2c	1r	0r
2B	2d	.	.
1c	1e	2r	.
.	.	[2g	.
=179	=179	=179	=179
1G	0d	2g]	2r
.	.	2d	1dd
1r	.	2.f	.
.	.	.	2a
.	.	4g	.
=180	=180	=180	=180
0r	1r	2a	2cc
.	.	2b	2dd
.	2r	1cc	[1ee
.	[2a	.	.
=181	=181	=181	=181
0r	2a]	2cc	2ee]
.	2e	2cc	2ee
.	2g	2b	2dd
.	2a	[2a	2cc
=182	=182	=182	=182
1r	1e	4a]	1b
.	.	8g#	.
.	.	8f#	.
.	.	2g#	.
[1d	1f	1a	2a
.	.	.	[2dd
=183	=183	=183	=183
1d]	0a	1f	2dd]
.	.	.	2a
1A	.	2e	2.cc
.	.	[2a	.
.	.	.	4dd
=184	=184	=184	=184
1c	1e	4a]	1ee
.	.	4g	.
.	.	1cc	.
2G	1g	.	[1dd
[2G	.	4b	.
.	.	4a	.
=185	=185	=185	=185
2G]	2d	2b	1dd]
2D	1d	2a	.
2.F	.	1a	1r
.	2A	.	.
4G	.	.	.
=186	=186	=186	=186
2A	2c	1r	0r
2B	2d	.	.
1c	1e	2r	.
.	.	[2g	.
=187	=187	=187	=187
1G	0d	2g]	2r
.	.	2d	1dd
1r	.	2.f	.
.	.	.	2a
.	.	4g	.
=188	=188	=188	=188
0r	1r	2a	2cc
.	.	2b	2dd
.	2r	1cc	[1ee
.	[2a	.	.
=189	=189	=189	=189
0r	2a]	2cc	2ee]
.	2e	2cc	2ee
.	2g	2b	2dd
.	2a	[2a	2cc
=190	=190	=190	=190
1r	0e	4a]	1b
.	.	8g#	.
.	.	8f#	.
.	.	2g#	.
1A	.	1a	2cc#
.	.	.	2cc#
=191	=191	=191	=191
1d	1f#	1a	1dd
2G	1g	1b	2dd
2G	.	.	2dd
=192	=192	=192	=192
1c	2g	2cc	1ee
.	2g	2cc	.
1A	2a	2.cc	1ee
.	2a	.	.
.	.	4b	.
=193	=193	=193	=193
2.d	2.f	2a	1.dd
.	.	2d	.
4c	4e	.	.
2B-	2d	2f	.
2B-	2d	2g	2dd
=194	=194	=194	=194
0A	0e	0a	2cc
.	.	.	4a
.	.	.	4b
.	.	.	4cc
.	.	.	4dd
.	.	.	4ee
.	.	.	4cc
=195	=195	=195	=195
2.D	2.f	0a	4dd
.	.	.	4ee
.	.	.	1ff
4E	4e	.	.
4F	2d	.	.
4G	.	.	.
4A	4c	.	[2ee
4B	4B	.	.
=196	=196	=196	=196
2c	2A	0a	2ee]
2d	2f	.	1dd
1A	1e	.	.
.	.	.	2cc#
=197	=197	=197	=197
0D	[0d	2f	1dd
.	.	4d	.
.	.	4e	.
.	.	4f	1a
.	.	4g	.
.	.	4a	.
.	.	4g	.
=198	=198	=198	=198
1.G	0d]	4g	2.b-
.	.	4a	.
.	.	1b-	.
.	.	.	4a
.	.	.	2g
2F#	.	2a	2a
=199	=199	=199	=199
0G	[0d	0g	0b-
=200	=200	=200	=200
0D	0d]	0f#	0a
==	==	==	==
*-	*-	*-	*-
!!!CDT: 1525/^1526/-1594/2/2
!!!OCY: Italia
!!!AGN: Mass (Paraphrase)
!!!AST: renaissance, vocal
!!!ASW: Prayer
!!!PWK: Masses, Book 10
!!!RNB: Cadence finals: A
!!!YOR: Le Opere Complete, v. 27, p. 199
!!!YOO: Rome, Italy: Fratelli Scalera
!!!END: 1992//
!!!EED: John Miller
!!!YEC: Copyright 2000, John Miller
!!!YEN: United States of America
!!!YEM: Rights to all derivative electronic formats reserved.
!!!YEM: Refer to licensing agreement for further details.
!!!YEM: This file must be accompanied by the licensing agreement.
!!!YEM: A copy of the licensing agreement may be found at http://www.music-cog.ohio-state.edu/HumdrumDatabases/Palestrina/license.txt
!!!EMD: converted to Humdrum by Bret Aarden
